icons/1_Primary/Magento.svg

<svg xmlns="http://www.w3.org/2000/svg" width="1024" height="1024" fill="none">
   <g clip-path="url(#a)">
      <path fill="#F8C18C" d="M512 1024c282.77 0 512-229.23 512-512S794.77 0 512 0 0 229.23 0 512s229.23 512 512 512Z"/>
      <path fill="#fff" d="M512.21 256 290.32 384.08V640l63.37 36.55-.41-255.84 158.51-91.61 158.52 91.63v255.74L733.68 640V383.87L512.21 256Zm31.48 420.58L512 694.9l-31.79-18.22V420.73l-63.37 36.55.1 255.84L512 768l95-54.88V457.28l-63.37-36.55.06 255.85Z"/>
   </g>
   <defs>
      <clipPath id="a">
         <path fill="#fff" d="M0 0h1024v1024H0z"/>
      </clipPath>
   </defs>
</svg>

<svg width="1024" height="1024" viewBox="0 0 1024 1024" fill="none" xmlns="http://www.w3.org/2000/svg">
<g clip-path="url(#clip0_2_2721)">
<path d="M512 1024C794.77 1024 1024 794.77 1024 512C1024 229.23 794.77 0 512 0C229.23 0 0 229.23 0 512C0 794.77 229.23 1024 512 1024Z" fill="#F8C18C"/>
<path d="M512.21 256L290.32 384.08V640L353.69 676.55L353.28 420.71L511.79 329.1L670.31 420.73V676.47L733.68 640V383.87L512.21 256ZM543.69 676.58L512 694.9L480.21 676.68V420.73L416.84 457.28L416.94 713.12L512 768L607 713.12V457.28L543.63 420.73L543.69 676.58Z" fill="white"/>
</g>
<defs>
<clipPath id="clip0_2_2721">
<rect width="1024" height="1024" fill="white"/>
</clipPath>
</defs>
</svg>
